X:80
T:Anglais efter Jöns Persson
T:(SvL Skåne nr. 80)
R:Anglais
Z:Patrik Månsson, 2009-01-12
O:Roalöv, Skåne
S:efter Jöns Persson
S:Svenska Låtar Skåne
B:Svenska Låtar Skåne
M:C
L:1/8
K:Bb
|: Bdfg gfdf | fece e2 d2 | Bdfg gfdf | (af)ga b4 :|
|: d^cde d=cBA | cBAG ^F2 G2 | (A=F)FA (cB)Bd | (gf)ec B4 :|

